usr/share/icons/biglinux-icons-material/16/actions/distribute-vertical-page.svg

<svg xmlns="http://www.w3.org/2000/svg" viewBox="0 0 16 16"><path d="M1 1v12l2 2h12V1H1zm1 1h12v12H4v-2H2V2zm2 1v4h8V3H4zm1 1h6v2H5V4zM4 9v2h1v-1h6v2H5v1h7V9H4z" style="fill:currentColor;fill-opacity:1;stroke:none;color:#dedede"/></svg>

<svg xmlns="http://www.w3.org/2000/svg" viewBox="0 0 16 16">
  <defs id="defs3051">
    <style type="text/css" id="current-color-scheme">
      .ColorScheme-Text {
        color:#363636;
      }
      </style>
  </defs>
 <path style="fill:currentColor;fill-opacity:1;stroke:none" 
     d="M 1 1 L 1 11 L 1 13 L 3 15 L 4 15 L 15 15 L 15 1 L 1 1 z M 2 2 L 14 2 L 14 14 L 4 14 L 4 12 L 2 12 L 2 2 z M 4 3 L 4 7 L 12 7 L 12 3 L 4 3 z M 5 4 L 11 4 L 11 6 L 5 6 L 5 4 z M 4 9 L 4 11 L 5 11 L 5 10 L 11 10 L 11 12 L 5 12 L 5 13 L 12 13 L 12 9 L 4 9 z "
     class="ColorScheme-Text"
     />
</svg>
